src/helpers/heroicons/outline/microphone.svg

<svg width="24" height="24" viewBox="0 0 24 24" fill="none" xmlns="http://www.w3.org/2000/svg">
<path d="M12 18.75C15.3137 18.75 18 16.0637 18 12.75V11.25M12 18.75C8.68629 18.75 6 16.0637 6 12.75V11.25M12 18.75V22.5M8.25 22.5H15.75M12 15.75C10.3431 15.75 9 14.4069 9 12.75V4.5C9 2.84315 10.3431 1.5 12 1.5C13.6569 1.5 15 2.84315 15 4.5V12.75C15 14.4069 13.6569 15.75 12 15.75Z"  stroke-width="1.5" stroke-linecap="round" stroke-linejoin="round"/>
</svg>

<svg xmlns="http://www.w3.org/2000/svg" fill="none" viewBox="0 0 24 24" stroke-width="1.5" stroke="currentColor" aria-hidden="true" data-slot="icon">
  <path stroke-linecap="round" stroke-linejoin="round" d="M12 18.75a6 6 0 0 0 6-6v-1.5m-6 7.5a6 6 0 0 1-6-6v-1.5m6 7.5v3.75m-3.75 0h7.5M12 15.75a3 3 0 0 1-3-3V4.5a3 3 0 1 1 6 0v8.25a3 3 0 0 1-3 3Z"/>
</svg>
